Newaita-dark/apps/22/com.github.cassidyjames.clairvoyant.svg

<svg height="22" viewBox="0 0 22 22" width="22" xmlns="http://www.w3.org/2000/svg" xmlns:xlink="http://www.w3.org/1999/xlink"><linearGradient id="a"><stop offset="0" stop-opacity=".313726"/><stop offset=".222222" stop-opacity=".27451"/><stop offset="1" stop-opacity="0"/></linearGradient><radialGradient id="b" cx="450.908936" cy="189.579361" gradientTransform="matrix(.00000012 -.0537161 -.0966889 -.00000007 30.609667 43.721789)" gradientUnits="userSpaceOnUse" r="21.166656" xlink:href="#a"/><radialGradient id="c" cx="450.908936" cy="189.579361" gradientTransform="matrix(-.00000012 .0537161 .0966889 .00000007 -8.779457 -5.175144)" gradientUnits="userSpaceOnUse" r="21.166656" xlink:href="#a"/><radialGradient id="d" cx="450.908936" cy="189.579361" gradientTransform="matrix(-.00000012 -.0537161 .0966889 -.00000007 -8.779457 43.721789)" gradientUnits="userSpaceOnUse" r="21.166656" xlink:href="#a"/><radialGradient id="e" cx="450.908936" cy="189.579361" gradientTransform="matrix(.00000012 .0537161 -.0966889 .00000007 30.609666 -5.175144)" gradientUnits="userSpaceOnUse" r="21.166656" xlink:href="#a"/><linearGradient id="f" gradientTransform="matrix(.00918504 0 0 .0429729 8.569953 9.239164)" gradientUnits="userSpaceOnUse" x1="255.323059" x2="255.323044" y1="233.5" y2="254.666656"><stop offset="0" stop-opacity=".27451"/><stop offset="1" stop-opacity="0"/></linearGradient><linearGradient id="g" gradientUnits="userSpaceOnUse" x1="10.9151166" x2="10.9151166" y1="1.99106697081" y2="19.27333515"><stop offset="0" stop-color="#90a4ae"/><stop offset="1" stop-color="#546e7a"/></linearGradient><linearGradient id="h" gradientTransform="matrix(.0429729 0 0 -.0429729 0 9.239163)" gradientUnits="userSpaceOnUse" x1="254" x2="254" y1="-170" y2="105.166656"><stop offset="0" stop-color="#bdbdbd"/><stop offset="1" stop-color="#e0e0e0"/></linearGradient><linearGradient id="i" gradientUnits="userSpaceOnUse" x1="10.915104" x2="10.915104" y1="4.7198513193" y2="16.54454801286"><stop offset="0" stop-color="#616161"/><stop offset="1" stop-color="#424242"/></linearGradient><path d="m12.507812 19.273438h1.816407v-.910157h-1.816407zm0 0" fill="url(#b)"/><path d="m9.324219 19.273438h-1.820313v.910156h1.820313zm0 0" fill="url(#c)"/><path d="m9.324219 19.273438h-1.820313v-.910157h1.820313zm0 0" fill="url(#d)"/><path d="m12.507812 19.273438h1.816407v.910156h-1.816407zm0 0" fill="url(#e)"/><path d="m9.324219 19.046875h3.183593v1.136719h-3.183593zm0 0" fill="url(#f)"/><path d="m10.914062 1.992188c4.773438 0 8.640626 3.867187 8.640626 8.640624 0 4.773438-3.867188 8.640626-8.640626 8.640626-4.769531 0-8.640624-3.867188-8.640624-8.640626 0-4.773437 3.871093-8.640624 8.640624-8.640624zm0 0" fill="url(#g)"/><path d="m10.914062 19.273438c-4.785156 0-8.640624-3.855469-8.640624-8.640626 0-.027343 0-.058593 0-.085937.046874 4.75 3.882812 8.558594 8.640624 8.558594 4.761719 0 8.597657-3.808594 8.640626-8.558594v.085937c0 4.785157-3.851563 8.640626-8.640626 8.640626zm0 0" fill-opacity=".196078"/><path d="m10.914062 1.992188c-4.785156 0-8.640624 3.851562-8.640624 8.640624v.085938c.046874-4.75 3.882812-8.558594 8.640624-8.558594 4.761719 0 8.597657 3.808594 8.640626 8.558594 0-.03125 0-.058594 0-.085938 0-4.789062-3.851563-8.640624-8.640626-8.640624zm0 0" fill="#fff" fill-opacity=".392157"/><path d="m10.914062 1.925781c-4.820312 0-8.703124 3.882813-8.703124 8.707031 0 4.820313 3.882812 8.703126 8.703124 8.703126 4.824219 0 8.707032-3.882813 8.707032-8.703126 0-4.824218-3.882813-8.707031-8.707032-8.707031zm0 .128907c4.753907 0 8.578126 3.824218 8.578126 8.578124 0 4.75-3.824219 8.574219-8.578126 8.574219-4.75 0-8.574218-3.824219-8.574218-8.574219 0-4.753906 3.824218-8.578124 8.574218-8.578124zm0 0" fill="#212121"/><path d="m10.914062 16.542969c3.265626 0 5.914063-2.644531 5.914063-5.910157 0-3.265624-2.648437-5.914062-5.914063-5.914062-3.265624 0-5.910156 2.648438-5.910156 5.914062 0 3.265626 2.644532 5.910157 5.910156 5.910157zm0 0" fill="url(#h)"/><path d="m10.914062 4.71875c-3.273437 0-5.910156 2.636719-5.910156 5.914062 0 .074219 0 .152344.003906.226563.117188-3.167969 2.707032-5.683594 5.90625-5.683594 3.199219 0 5.789063 2.515625 5.910157 5.683594 0-.074219.003906-.152344.003906-.226563 0-3.277343-2.636719-5.914062-5.914063-5.914062zm0 0" fill-opacity=".235294"/><path d="m5.007812 10.859375c-.003906.074219-.003906.152344-.003906.226563 0 3.277343 2.636719 5.914062 5.910156 5.914062 3.277344 0 5.914063-2.636719 5.914063-5.914062 0-.074219-.003906-.152344-.003906-.226563-.121094 3.167969-2.710938 5.683594-5.910157 5.683594-3.199218 0-5.789062-2.515625-5.90625-5.683594zm0 0" fill="#fff" fill-opacity=".392157"/><path d="m253.975747-169.963238c75.992743 0 137.623221 61.539578 137.623221 137.532321s-61.630478 137.623221-137.623221 137.623221c-75.992744 0-137.532321-61.630478-137.532321-137.623221s61.539577-137.532321 137.532321-137.532321zm0 0" fill="none" stroke="#212121" stroke-linecap="round" stroke-width="3" transform="matrix(.0429729 0 0 -.0429729 0 9.239163)"/><path d="m10.003906 6.992188c-.753906 0-1.363281.609374-1.363281 1.367187v.910156c0 .472657.242187.890625.609375 1.136719-.367188.242188-.609375.660156-.609375 1.136719v1.363281c0 .753906.609375 1.363281 1.363281 1.363281h1.820313c.757812 0 1.363281-.609375 1.363281-1.363281v-1.363281c0-.476563-.238281-.894531-.605469-1.136719.367188-.246094.605469-.664062.605469-1.136719v-.910156c0-.757813-.605469-1.367187-1.363281-1.367187zm.230469.910156h1.363281c.378906 0 .683594.304687.683594.683594v.683593c0 .375-.304688.679688-.683594.679688h-1.363281c-.378906 0-.683594-.304688-.683594-.679688v-.683593c0-.378907.304688-.683594.683594-.683594zm0 2.957031h1.363281c.378906 0 .683594.304687.683594.683594v1.136719c0 .378906-.304688.679687-.683594.679687h-1.363281c-.378906 0-.683594-.300781-.683594-.679687v-1.136719c0-.378907.304688-.683594.683594-.683594zm0 0" fill="url(#i)"/><path d="m10.003906 6.992188c-.753906 0-1.363281.609374-1.363281 1.367187v.226563c0-.757813.609375-1.363282 1.363281-1.363282h1.820313c.757812 0 1.363281.605469 1.363281 1.363282v-.226563c0-.757813-.605469-1.367187-1.363281-1.367187zm-.453125 2.277343v.226563c0 .378906.304688.679687.683594.679687h1.363281c.378906 0 .683594-.300781.683594-.679687v-.226563c0 .375-.304688.679688-.683594.679688h-1.363281c-.378906 0-.683594-.304688-.683594-.679688zm-.449219 1.25c-.28125.25-.460937.613281-.460937 1.023438v.226562c0-.476562.242187-.894531.609375-1.136719-.050781-.035156-.101562-.074218-.148438-.113281zm3.628907 0c-.046875.039063-.097657.078125-.148438.113281.367188.242188.605469.660157.605469 1.136719v-.226562c0-.410157-.175781-.773438-.457031-1.023438zm-3.179688 2.160157v.226562c0 .378906.304688.683594.683594.683594h1.363281c.378906 0 .683594-.304688.683594-.683594v-.226562c0 .378906-.304688.679687-.683594.679687h-1.363281c-.378906 0-.683594-.300781-.683594-.679687zm0 0" fill="#fff" fill-opacity=".313726"/><path d="m10.234375 7.902344c-.378906 0-.683594.304687-.683594.683594v.339843c0-.378906.304688-.679687.683594-.679687h1.363281c.378906 0 .683594.300781.683594.679687v-.339843c0-.378907-.304688-.683594-.683594-.683594zm-1.59375 1.367187v.339844c0 .378906.152344.71875.398437.964844.066407-.0625.136719-.121094.210938-.167969-.367188-.246094-.609375-.664062-.609375-1.136719zm4.546875 0c0 .472657-.238281.890625-.605469 1.136719.074219.046875.144531.105469.207031.167969.246094-.246094.398438-.585938.398438-.964844zm-2.953125 1.589844c-.378906 0-.683594.304687-.683594.683594v.339843c0-.378906.304688-.683593.683594-.683593h1.363281c.378906 0 .683594.304687.683594.683593v-.339843c0-.378907-.304688-.683594-.683594-.683594zm-1.59375 2.046875v.339844c0 .757812.609375 1.367187 1.363281 1.367187h1.820313c.757812 0 1.363281-.609375 1.363281-1.367187v-.339844c0 .753906-.605469 1.363281-1.363281 1.363281h-1.820313c-.753906 0-1.363281-.609375-1.363281-1.363281zm0 0" fill-opacity=".235294"/><path d="m879.858758 614.973517c-66.3072 0-119.902657 53.595458-119.902657 120.246219v80.049625c0 41.570836 21.300758 78.331822 53.595457 99.976142-32.294699 21.300758-53.595457 58.061745-53.595457 99.976141v119.902658c0 66.307201 53.595457 119.902658 119.902657 119.902658h160.099251c66.650761 0 119.902658-53.595457 119.902658-119.902658v-119.902658c0-41.914396-20.957198-78.675383-53.251897-99.976141 32.294699-21.64432 53.251897-58.405306 53.251897-99.976142v-80.049625c0-66.650761-53.251897-120.246219-119.902658-120.246219zm20.270077 80.049626h119.902658c33.325381 0 60.123109 26.797728 60.123109 60.123109v60.123109c0 32.98182-26.797728 59.779549-60.123109 59.779549h-119.902658c-33.32538 0-60.123109-26.797729-60.123109-59.779549v-60.123109c0-33.325381 26.797729-60.123109 60.123109-60.123109zm0 260.075392h119.902658c33.325381 0 60.123109 26.797729 60.123109 60.123109v99.976142c0 33.32538-26.797728 59.779548-60.123109 59.779548h-119.902658c-33.32538 0-60.123109-26.454168-60.123109-59.779548v-99.976142c0-33.32538 26.797729-60.123109 60.123109-60.123109zm0 0" fill="none" stroke="#212121" stroke-linecap="round" stroke-linejoin="round" stroke-width="11.338583" transform="scale(.0113699)"/></svg>

<?xml version="1.0" encoding="UTF-8"?>
<svg xmlns="http://www.w3.org/2000/svg" xmlns:xlink="http://www.w3.org/1999/xlink" width="22px" height="22px" viewBox="0 0 22 22" version="1.1">
<defs>
<radialGradient id="radial0" gradientUnits="userSpaceOnUse" cx="450.908936" cy="189.579361" fx="450.908936" fy="189.579361" r="21.166656" gradientTransform="matrix(0.000000119742,-0.0537161,-0.0966889,-0.0000000698078,30.609667,43.721789)">
<stop offset="0" style="stop-color:rgb(0%,0%,0%);stop-opacity:0.313726;"/>
<stop offset="0.222222" style="stop-color:rgb(0%,0%,0%);stop-opacity:0.27451;"/>
<stop offset="1" style="stop-color:rgb(0%,0%,0%);stop-opacity:0;"/>
</radialGradient>
<radialGradient id="radial1" gradientUnits="userSpaceOnUse" cx="450.908936" cy="189.579361" fx="450.908936" fy="189.579361" r="21.166656" gradientTransform="matrix(-0.000000119742,0.0537161,0.0966889,0.0000000698078,-8.779457,-5.175144)">
<stop offset="0" style="stop-color:rgb(0%,0%,0%);stop-opacity:0.313726;"/>
<stop offset="0.222222" style="stop-color:rgb(0%,0%,0%);stop-opacity:0.27451;"/>
<stop offset="1" style="stop-color:rgb(0%,0%,0%);stop-opacity:0;"/>
</radialGradient>
<radialGradient id="radial2" gradientUnits="userSpaceOnUse" cx="450.908936" cy="189.579361" fx="450.908936" fy="189.579361" r="21.166656" gradientTransform="matrix(-0.000000119742,-0.0537161,0.0966889,-0.0000000698078,-8.779457,43.721789)">
<stop offset="0" style="stop-color:rgb(0%,0%,0%);stop-opacity:0.313726;"/>
<stop offset="0.222222" style="stop-color:rgb(0%,0%,0%);stop-opacity:0.27451;"/>
<stop offset="1" style="stop-color:rgb(0%,0%,0%);stop-opacity:0;"/>
</radialGradient>
<radialGradient id="radial3" gradientUnits="userSpaceOnUse" cx="450.908936" cy="189.579361" fx="450.908936" fy="189.579361" r="21.166656" gradientTransform="matrix(0.000000119742,0.0537161,-0.0966889,0.0000000698078,30.609666,-5.175144)">
<stop offset="0" style="stop-color:rgb(0%,0%,0%);stop-opacity:0.313726;"/>
<stop offset="0.222222" style="stop-color:rgb(0%,0%,0%);stop-opacity:0.27451;"/>
<stop offset="1" style="stop-color:rgb(0%,0%,0%);stop-opacity:0;"/>
</radialGradient>
<linearGradient id="linear0" gradientUnits="userSpaceOnUse" x1="255.323059" y1="233.5" x2="255.323044" y2="254.666656" gradientTransform="matrix(0.00918504,0,0,0.0429729,8.569953,9.239164)">
<stop offset="0" style="stop-color:rgb(0%,0%,0%);stop-opacity:0.27451;"/>
<stop offset="1" style="stop-color:rgb(0%,0%,0%);stop-opacity:0;"/>
</linearGradient>
<linearGradient id="linear1" gradientUnits="userSpaceOnUse" x1="254" y1="-168.666672" x2="254" y2="233.5" gradientTransform="matrix(0.0429729,0,0,0.0429729,0,9.239163)">
<stop offset="0" style="stop-color:rgb(56.470591%,64.313728%,68.235296%);stop-opacity:1;"/>
<stop offset="1" style="stop-color:rgb(32.941177%,43.137255%,47.843137%);stop-opacity:1;"/>
</linearGradient>
<linearGradient id="linear2" gradientUnits="userSpaceOnUse" x1="254" y1="-170" x2="254" y2="105.166656" gradientTransform="matrix(0.0429729,0,0,-0.0429729,0,9.239163)">
<stop offset="0" style="stop-color:rgb(74.117649%,74.117649%,74.117649%);stop-opacity:1;"/>
<stop offset="1" style="stop-color:rgb(87.843138%,87.843138%,87.843138%);stop-opacity:1;"/>
</linearGradient>
<linearGradient id="linear3" gradientUnits="userSpaceOnUse" x1="960" y1="415.118103" x2="960" y2="1455.118164" gradientTransform="matrix(0.0113699,0,0,0.0113699,0,0)">
<stop offset="0" style="stop-color:rgb(38.039216%,38.039216%,38.039216%);stop-opacity:1;"/>
<stop offset="1" style="stop-color:rgb(25.882354%,25.882354%,25.882354%);stop-opacity:1;"/>
</linearGradient>
</defs>
<g id="surface1">
<path style=" stroke:none;fill-rule:nonzero;fill:url(#radial0);" d="M 12.507812 19.273438 L 14.324219 19.273438 L 14.324219 18.363281 L 12.507812 18.363281 Z M 12.507812 19.273438 "/>
<path style=" stroke:none;fill-rule:nonzero;fill:url(#radial1);" d="M 9.324219 19.273438 L 7.503906 19.273438 L 7.503906 20.183594 L 9.324219 20.183594 Z M 9.324219 19.273438 "/>
<path style=" stroke:none;fill-rule:nonzero;fill:url(#radial2);" d="M 9.324219 19.273438 L 7.503906 19.273438 L 7.503906 18.363281 L 9.324219 18.363281 Z M 9.324219 19.273438 "/>
<path style=" stroke:none;fill-rule:nonzero;fill:url(#radial3);" d="M 12.507812 19.273438 L 14.324219 19.273438 L 14.324219 20.183594 L 12.507812 20.183594 Z M 12.507812 19.273438 "/>
<path style=" stroke:none;fill-rule:nonzero;fill:url(#linear0);" d="M 9.324219 19.046875 L 12.507812 19.046875 L 12.507812 20.183594 L 9.324219 20.183594 Z M 9.324219 19.046875 "/>
<path style=" stroke:none;fill-rule:nonzero;fill:url(#linear1);" d="M 10.914062 1.992188 C 15.6875 1.992188 19.554688 5.859375 19.554688 10.632812 C 19.554688 15.40625 15.6875 19.273438 10.914062 19.273438 C 6.144531 19.273438 2.273438 15.40625 2.273438 10.632812 C 2.273438 5.859375 6.144531 1.992188 10.914062 1.992188 Z M 10.914062 1.992188 "/>
<path style=" stroke:none;fill-rule:nonzero;fill:rgb(0%,0%,0%);fill-opacity:0.196078;" d="M 10.914062 19.273438 C 6.128906 19.273438 2.273438 15.417969 2.273438 10.632812 C 2.273438 10.605469 2.273438 10.574219 2.273438 10.546875 C 2.320312 15.296875 6.15625 19.105469 10.914062 19.105469 C 15.675781 19.105469 19.511719 15.296875 19.554688 10.546875 C 19.554688 10.574219 19.554688 10.605469 19.554688 10.632812 C 19.554688 15.417969 15.703125 19.273438 10.914062 19.273438 Z M 10.914062 19.273438 "/>
<path style=" stroke:none;fill-rule:nonzero;fill:rgb(100%,100%,100%);fill-opacity:0.392157;" d="M 10.914062 1.992188 C 6.128906 1.992188 2.273438 5.84375 2.273438 10.632812 C 2.273438 10.660156 2.273438 10.6875 2.273438 10.71875 C 2.320312 5.96875 6.15625 2.160156 10.914062 2.160156 C 15.675781 2.160156 19.511719 5.96875 19.554688 10.71875 C 19.554688 10.6875 19.554688 10.660156 19.554688 10.632812 C 19.554688 5.84375 15.703125 1.992188 10.914062 1.992188 Z M 10.914062 1.992188 "/>
<path style=" stroke:none;fill-rule:nonzero;fill:rgb(12.941177%,12.941177%,12.941177%);fill-opacity:1;" d="M 10.914062 1.925781 C 6.09375 1.925781 2.210938 5.808594 2.210938 10.632812 C 2.210938 15.453125 6.09375 19.335938 10.914062 19.335938 C 15.738281 19.335938 19.621094 15.453125 19.621094 10.632812 C 19.621094 5.808594 15.738281 1.925781 10.914062 1.925781 Z M 10.914062 2.054688 C 15.667969 2.054688 19.492188 5.878906 19.492188 10.632812 C 19.492188 15.382812 15.667969 19.207031 10.914062 19.207031 C 6.164062 19.207031 2.339844 15.382812 2.339844 10.632812 C 2.339844 5.878906 6.164062 2.054688 10.914062 2.054688 Z M 10.914062 2.054688 "/>
<path style=" stroke:none;fill-rule:nonzero;fill:url(#linear2);" d="M 10.914062 16.542969 C 14.179688 16.542969 16.828125 13.898438 16.828125 10.632812 C 16.828125 7.367188 14.179688 4.71875 10.914062 4.71875 C 7.648438 4.71875 5.003906 7.367188 5.003906 10.632812 C 5.003906 13.898438 7.648438 16.542969 10.914062 16.542969 Z M 10.914062 16.542969 "/>
<path style=" stroke:none;fill-rule:nonzero;fill:rgb(0%,0%,0%);fill-opacity:0.235294;" d="M 10.914062 4.71875 C 7.640625 4.71875 5.003906 7.355469 5.003906 10.632812 C 5.003906 10.707031 5.003906 10.785156 5.007812 10.859375 C 5.125 7.691406 7.714844 5.175781 10.914062 5.175781 C 14.113281 5.175781 16.703125 7.691406 16.824219 10.859375 C 16.824219 10.785156 16.828125 10.707031 16.828125 10.632812 C 16.828125 7.355469 14.191406 4.71875 10.914062 4.71875 Z M 10.914062 4.71875 "/>
<path style=" stroke:none;fill-rule:nonzero;fill:rgb(100%,100%,100%);fill-opacity:0.392157;" d="M 5.007812 10.859375 C 5.003906 10.933594 5.003906 11.011719 5.003906 11.085938 C 5.003906 14.363281 7.640625 17 10.914062 17 C 14.191406 17 16.828125 14.363281 16.828125 11.085938 C 16.828125 11.011719 16.824219 10.933594 16.824219 10.859375 C 16.703125 14.027344 14.113281 16.542969 10.914062 16.542969 C 7.714844 16.542969 5.125 14.027344 5.007812 10.859375 Z M 5.007812 10.859375 "/>
<path style="fill:none;stroke-width:3;stroke-linecap:round;stroke-linejoin:miter;stroke:rgb(12.941177%,12.941177%,12.941177%);stroke-opacity:1;stroke-miterlimit:4;" d="M 253.975747 -169.963238 C 329.96849 -169.963238 391.598968 -108.42366 391.598968 -32.430917 C 391.598968 43.561826 329.96849 105.192304 253.975747 105.192304 C 177.983003 105.192304 116.443426 43.561826 116.443426 -32.430917 C 116.443426 -108.42366 177.983003 -169.963238 253.975747 -169.963238 Z M 253.975747 -169.963238 " transform="matrix(0.0429729,0,0,-0.0429729,0,9.239163)"/>
<path style=" stroke:none;fill-rule:nonzero;fill:url(#linear3);" d="M 10.003906 6.992188 C 9.25 6.992188 8.640625 7.601562 8.640625 8.359375 L 8.640625 9.269531 C 8.640625 9.742188 8.882812 10.160156 9.25 10.40625 C 8.882812 10.648438 8.640625 11.066406 8.640625 11.542969 L 8.640625 12.90625 C 8.640625 13.660156 9.25 14.269531 10.003906 14.269531 L 11.824219 14.269531 C 12.582031 14.269531 13.1875 13.660156 13.1875 12.90625 L 13.1875 11.542969 C 13.1875 11.066406 12.949219 10.648438 12.582031 10.40625 C 12.949219 10.160156 13.1875 9.742188 13.1875 9.269531 L 13.1875 8.359375 C 13.1875 7.601562 12.582031 6.992188 11.824219 6.992188 Z M 10.234375 7.902344 L 11.597656 7.902344 C 11.976562 7.902344 12.28125 8.207031 12.28125 8.585938 L 12.28125 9.269531 C 12.28125 9.644531 11.976562 9.949219 11.597656 9.949219 L 10.234375 9.949219 C 9.855469 9.949219 9.550781 9.644531 9.550781 9.269531 L 9.550781 8.585938 C 9.550781 8.207031 9.855469 7.902344 10.234375 7.902344 Z M 10.234375 10.859375 L 11.597656 10.859375 C 11.976562 10.859375 12.28125 11.164062 12.28125 11.542969 L 12.28125 12.679688 C 12.28125 13.058594 11.976562 13.359375 11.597656 13.359375 L 10.234375 13.359375 C 9.855469 13.359375 9.550781 13.058594 9.550781 12.679688 L 9.550781 11.542969 C 9.550781 11.164062 9.855469 10.859375 10.234375 10.859375 Z M 10.234375 10.859375 "/>
<path style=" stroke:none;fill-rule:nonzero;fill:rgb(100%,100%,100%);fill-opacity:0.313726;" d="M 10.003906 6.992188 C 9.25 6.992188 8.640625 7.601562 8.640625 8.359375 L 8.640625 8.585938 C 8.640625 7.828125 9.25 7.222656 10.003906 7.222656 L 11.824219 7.222656 C 12.582031 7.222656 13.1875 7.828125 13.1875 8.585938 L 13.1875 8.359375 C 13.1875 7.601562 12.582031 6.992188 11.824219 6.992188 Z M 9.550781 9.269531 L 9.550781 9.496094 C 9.550781 9.875 9.855469 10.175781 10.234375 10.175781 L 11.597656 10.175781 C 11.976562 10.175781 12.28125 9.875 12.28125 9.496094 L 12.28125 9.269531 C 12.28125 9.644531 11.976562 9.949219 11.597656 9.949219 L 10.234375 9.949219 C 9.855469 9.949219 9.550781 9.644531 9.550781 9.269531 Z M 9.101562 10.519531 C 8.820312 10.769531 8.640625 11.132812 8.640625 11.542969 L 8.640625 11.769531 C 8.640625 11.292969 8.882812 10.875 9.25 10.632812 C 9.199219 10.597656 9.148438 10.558594 9.101562 10.519531 Z M 12.730469 10.519531 C 12.683594 10.558594 12.632812 10.597656 12.582031 10.632812 C 12.949219 10.875 13.1875 11.292969 13.1875 11.769531 L 13.1875 11.542969 C 13.1875 11.132812 13.011719 10.769531 12.730469 10.519531 Z M 9.550781 12.679688 L 9.550781 12.90625 C 9.550781 13.285156 9.855469 13.589844 10.234375 13.589844 L 11.597656 13.589844 C 11.976562 13.589844 12.28125 13.285156 12.28125 12.90625 L 12.28125 12.679688 C 12.28125 13.058594 11.976562 13.359375 11.597656 13.359375 L 10.234375 13.359375 C 9.855469 13.359375 9.550781 13.058594 9.550781 12.679688 Z M 9.550781 12.679688 "/>
<path style=" stroke:none;fill-rule:nonzero;fill:rgb(0%,0%,0%);fill-opacity:0.235294;" d="M 10.234375 7.902344 C 9.855469 7.902344 9.550781 8.207031 9.550781 8.585938 L 9.550781 8.925781 C 9.550781 8.546875 9.855469 8.246094 10.234375 8.246094 L 11.597656 8.246094 C 11.976562 8.246094 12.28125 8.546875 12.28125 8.925781 L 12.28125 8.585938 C 12.28125 8.207031 11.976562 7.902344 11.597656 7.902344 Z M 8.640625 9.269531 L 8.640625 9.609375 C 8.640625 9.988281 8.792969 10.328125 9.039062 10.574219 C 9.105469 10.511719 9.175781 10.453125 9.25 10.40625 C 8.882812 10.160156 8.640625 9.742188 8.640625 9.269531 Z M 13.1875 9.269531 C 13.1875 9.742188 12.949219 10.160156 12.582031 10.40625 C 12.65625 10.453125 12.726562 10.511719 12.789062 10.574219 C 13.035156 10.328125 13.1875 9.988281 13.1875 9.609375 Z M 10.234375 10.859375 C 9.855469 10.859375 9.550781 11.164062 9.550781 11.542969 L 9.550781 11.882812 C 9.550781 11.503906 9.855469 11.199219 10.234375 11.199219 L 11.597656 11.199219 C 11.976562 11.199219 12.28125 11.503906 12.28125 11.882812 L 12.28125 11.542969 C 12.28125 11.164062 11.976562 10.859375 11.597656 10.859375 Z M 8.640625 12.90625 L 8.640625 13.246094 C 8.640625 14.003906 9.25 14.613281 10.003906 14.613281 L 11.824219 14.613281 C 12.582031 14.613281 13.1875 14.003906 13.1875 13.246094 L 13.1875 12.90625 C 13.1875 13.660156 12.582031 14.269531 11.824219 14.269531 L 10.003906 14.269531 C 9.25 14.269531 8.640625 13.660156 8.640625 12.90625 Z M 8.640625 12.90625 "/>
<path style="fill:none;stroke-width:11.338583;stroke-linecap:round;stroke-linejoin:round;stroke:rgb(12.941177%,12.941177%,12.941177%);stroke-opacity:1;stroke-miterlimit:4;" d="M 879.858758 614.973517 C 813.551558 614.973517 759.956101 668.568975 759.956101 735.219736 L 759.956101 815.269361 C 759.956101 856.840197 781.256859 893.601183 813.551558 915.245503 C 781.256859 936.546261 759.956101 973.307248 759.956101 1015.221644 L 759.956101 1135.124302 C 759.956101 1201.431503 813.551558 1255.02696 879.858758 1255.02696 L 1039.958009 1255.02696 C 1106.60877 1255.02696 1159.860667 1201.431503 1159.860667 1135.124302 L 1159.860667 1015.221644 C 1159.860667 973.307248 1138.903469 936.546261 1106.60877 915.245503 C 1138.903469 893.601183 1159.860667 856.840197 1159.860667 815.269361 L 1159.860667 735.219736 C 1159.860667 668.568975 1106.60877 614.973517 1039.958009 614.973517 Z M 900.128835 695.023143 L 1020.031493 695.023143 C 1053.356874 695.023143 1080.154602 721.820871 1080.154602 755.146252 L 1080.154602 815.269361 C 1080.154602 848.251181 1053.356874 875.04891 1020.031493 875.04891 L 900.128835 875.04891 C 866.803455 875.04891 840.005726 848.251181 840.005726 815.269361 L 840.005726 755.146252 C 840.005726 721.820871 866.803455 695.023143 900.128835 695.023143 Z M 900.128835 955.098535 L 1020.031493 955.098535 C 1053.356874 955.098535 1080.154602 981.896264 1080.154602 1015.221644 L 1080.154602 1115.197786 C 1080.154602 1148.523166 1053.356874 1174.977334 1020.031493 1174.977334 L 900.128835 1174.977334 C 866.803455 1174.977334 840.005726 1148.523166 840.005726 1115.197786 L 840.005726 1015.221644 C 840.005726 981.896264 866.803455 955.098535 900.128835 955.098535 Z M 900.128835 955.098535 " transform="matrix(0.0113699,0,0,0.0113699,0,0)"/>
</g>
</svg>
